dist/assets/images/features/02.svg

<svg width="40" height="40" viewBox="0 0 40 40" fill="none" xmlns="http://www.w3.org/2000/svg">
<g clip-path="url(#clip0_27_489)">
<path d="M37.8573 14.1741C37.3295 12.5397 37.5545 10.0864 36.1827 8.19207C34.8 6.28286 32.3952 5.7402 31.0373 4.74707C29.6938 3.76442 28.4438 1.62606 26.1837 0.888559C23.9873 0.17184 21.7414 1.14442 20 1.14442C18.2588 1.14442 16.013 0.171606 13.8163 0.888481C11.5566 1.62582 10.3056 3.76465 8.96289 4.74684C7.60648 5.73879 5.19992 6.28293 3.8175 8.19184C2.4468 10.0846 2.66953 12.5436 2.14266 14.174C1.64125 15.7258 0 17.5882 0 20.0001C0 22.4135 1.63938 24.2687 2.14266 25.8261C2.67047 27.4605 2.44547 29.9139 3.81734 31.8082C5.19992 33.7175 7.60461 34.26 8.96266 35.2532C10.306 36.2357 11.5562 38.3743 13.8163 39.1117C16.0112 39.8279 18.2606 38.8558 20 38.8558C21.737 38.8558 23.9916 39.8269 26.1837 39.1118C28.4434 38.3744 29.6937 36.2361 31.0371 35.2534C32.3935 34.2614 34.8001 33.7173 36.1825 31.8084C37.5533 29.9156 37.3304 27.4568 37.8573 25.8262C38.3587 24.2743 40 22.4119 40 20.0001C40 17.5869 38.361 15.7322 37.8573 14.1741ZM34.8838 24.8653C34.2686 26.7696 34.4298 28.9007 33.6516 29.9753C32.863 31.0641 30.7913 31.5614 29.1926 32.7308C27.6114 33.8871 26.5032 35.7202 25.2143 36.1407C23.9949 36.5387 22.0077 35.7307 20.0001 35.7307C17.9777 35.7307 16.011 36.5404 14.7858 36.1407C13.497 35.7202 12.3904 33.8884 10.8075 32.7307C9.21828 31.5685 7.13469 31.0609 6.34836 29.9751C5.57273 28.9042 5.72781 26.7582 5.11633 24.8654C4.51695 23.0107 3.125 21.4049 3.125 20.0001C3.125 18.594 4.5157 16.9936 5.11617 15.135C5.73141 13.2307 5.57023 11.0994 6.34836 10.025C7.13648 8.93684 9.20984 8.43786 10.8075 7.26942C12.3937 6.10934 13.4949 4.28067 14.7856 3.8595C16.004 3.462 17.9977 4.26957 19.9999 4.26957C22.0259 4.26957 23.9877 3.45926 25.2142 3.8595C26.5028 4.27997 27.6104 6.11247 29.1926 7.2695C30.7816 8.43176 32.8653 8.93934 33.6516 10.025C34.4274 11.0962 34.2715 13.24 34.8837 15.1348V15.1349C35.483 16.9895 36.875 18.5954 36.875 20.0001C36.875 21.4063 35.4843 23.0066 34.8838 24.8653ZM27.1987 14.9849C27.8089 15.5951 27.8089 16.5844 27.1987 17.1946L19.3779 25.0154C18.7677 25.6256 17.7783 25.6255 17.1681 25.0154L12.8014 20.6486C12.1912 20.0384 12.1911 19.0491 12.8013 18.4389C13.4116 17.8288 14.401 17.8287 15.011 18.4389L18.273 21.7008L24.9888 14.985C25.5991 14.3747 26.5884 14.3747 27.1987 14.9849Z" fill="#3A3A3A"/>
</g>
<defs>
<clipPath id="clip0_27_489">
<rect width="40" height="40" fill="white"/>
</clipPath>
</defs>
</svg>

<svg width="40" height="40" viewBox="0 0 40 40" fill="none" xmlns="http://www.w3.org/2000/svg"><g clip-path="url(#a)"><path d="M37.857 14.174c-.527-1.634-.303-4.088-1.674-5.982-1.383-1.91-3.788-2.452-5.146-3.445-1.343-.983-2.593-3.12-4.853-3.858-2.197-.717-4.443.255-6.184.255-1.741 0-3.987-.972-6.184-.256-2.26.738-3.51 2.877-4.853 3.859-1.357.992-3.763 1.536-5.145 3.445-1.371 1.893-1.148 4.352-1.675 5.982C1.64 15.726 0 17.588 0 20c0 2.413 1.64 4.269 2.143 5.826.527 1.634.302 4.088 1.674 5.982 1.383 1.91 3.788 2.452 5.146 3.445 1.343.983 2.593 3.121 4.853 3.859 2.195.716 4.445-.256 6.184-.256 1.737 0 3.992.97 6.184.256 2.26-.738 3.51-2.876 4.853-3.859 1.357-.992 3.763-1.536 5.145-3.445 1.371-1.892 1.148-4.351 1.675-5.982C38.36 24.274 40 22.412 40 20c0-2.413-1.639-4.268-2.143-5.826Zm-2.973 10.691c-.615 1.905-.454 4.036-1.232 5.11-.789 1.09-2.86 1.586-4.46 2.756-1.58 1.156-2.689 2.99-3.978 3.41-1.22.398-3.206-.41-5.214-.41-2.022 0-3.989.81-5.214.41-1.289-.42-2.396-2.253-3.979-3.41-1.589-1.163-3.672-1.67-4.459-2.756-.775-1.07-.62-3.217-1.232-5.11-.6-1.854-1.991-3.46-1.991-4.865 0-1.406 1.39-3.006 1.991-4.865.615-1.904.454-4.036 1.232-5.11.788-1.088 2.862-1.587 4.46-2.756 1.586-1.16 2.687-2.988 3.978-3.41 1.218-.397 3.212.41 5.214.41 2.026 0 3.988-.81 5.214-.41 1.289.421 2.396 2.253 3.979 3.41 1.589 1.163 3.672 1.67 4.459 2.756.775 1.071.62 3.215 1.232 5.11.599 1.854 1.991 3.46 1.991 4.865 0 1.406-1.39 3.007-1.991 4.865Zm-7.685-9.88c.61.61.61 1.6 0 2.21l-7.821 7.82c-.61.61-1.6.61-2.21 0l-4.367-4.366a1.562 1.562 0 1 1 2.21-2.21l3.262 3.262 6.716-6.716c.61-.61 1.6-.61 2.21 0Z" fill="#3A3A3A"/></g><defs><clipPath id="a"><path fill="#fff" d="M0 0h40v40H0z"/></clipPath></defs></svg>
